!!!OTL: Z' nachst bin i spat aussiganga und wollt' ma a Vogerl fanga
!!!ARE: Europa, Mitteleuropa, Deutschland, Niederbayern, Weitmichel
!!!SCT: D0136
!!!YEM: Copyright 1995, estate of Helmut Schaffrath.
**kern
*ICvox
*Ivox
*M3/4
*k[f#]
*G:
{4d
=1
4.g
8g
4g
=2
4b
4b
4a
=3
4g
4r}
{4B
=4
4.b
8b
4b
=5
4dd
4dd
4cc
=6
4b
4r}
{8g
8g
=7
4.ee
8ee
8ee
8ee
=8
4gg
4ff#
4ee
=9
4.dd
8dd
4dd
=10
4gg}
{4dd
4b
=11
4.cc
8cc
4dd
=12
4.ff#
8ee
4dd
=13
4b
4r}
{8g
8g
=14
4.ee
8ee
8ee
8ee
=15
4gg
4ff#
4ee
=16
4.dd
8dd
4dd
=17
4gg}
{4dd
4b
=18
4.cc
8cc
4dd
=19
4.ff#
8ee
4dd
=20
4b
4r}
==
!!!AGN: Kilt - Lied
!! Inzipit = Variante zum Lied
!!!ONB: ESAC (Essen Associative Code) Database: DVA
!!!AMT: simple triple
!!!AIN: vox
!!!EED: Helmut Schaffrath
!!!EEV: 1.0
*-
